Simply-Cyan-Circles/scalable/apps/sgt-launcher.svg

<svg xmlns="http://www.w3.org/2000/svg" width="48" height="48" viewBox="0 0 12.7 12.7"><path d="M6.34.07a6.29 6.29 0 0 0-6.29 6.3 6.29 6.29 0 0 0 6.3 6.28 6.29 6.29 0 0 0 6.28-6.29A6.29 6.29 0 0 0 6.34.07zm-.01.94a5.4 5.4 0 0 1 5.4 5.38h-5.4V1zM4.29 2.78a1.3 1.3 0 0 1 1.3 1.3 1.3 1.3 0 0 1-1.3 1.3A1.3 1.3 0 0 1 3 4.08a1.3 1.3 0 0 1 1.3-1.3zm3.9 0v.86h-.87v.87h.87v.87h.87V4.5h.86v-.87h-.86v-.86h-.87zM.92 6.38h5.42v5.44a5.4 5.4 0 0 1-.01 0 5.4 5.4 0 0 1-5.41-5.4 5.4 5.4 0 0 1 0-.03zm3.37.51l-.75 1.52-.76 1.51H5.8l-.76-1.51-.76-1.52zm5.63 0v3.03h-.86V8.7l-.44-.19-1.3-.54 1.3-.54 1.3-.54z" fill="#5beedc"/></svg>

<?xml version="1.0" encoding="UTF-8" standalone="no"?>
<svg
   xmlns:dc="http://purl.org/dc/elements/1.1/"
   xmlns:cc="http://creativecommons.org/ns#"
   xmlns:rdf="http://www.w3.org/1999/02/22-rdf-syntax-ns#"
   xmlns:svg="http://www.w3.org/2000/svg"
   xmlns="http://www.w3.org/2000/svg"
   xmlns:sodipodi="http://sodipodi.sourceforge.net/DTD/sodipodi-0.dtd"
   xmlns:inkscape="http://www.inkscape.org/namespaces/inkscape"
   width="48"
   height="48"
   viewBox="0 0 12.7 12.7"
   version="1.1"
   id="svg4"
   sodipodi:docname="sgt-launcher.svg"
   inkscape:version="0.92.4 (5da689c313, 2019-01-14)">
  <metadata
     id="metadata10">
    <rdf:RDF>
      <cc:Work
         rdf:about="">
        <dc:format>image/svg+xml</dc:format>
        <dc:type
           rdf:resource="http://purl.org/dc/dcmitype/StillImage" />
        <dc:title></dc:title>
      </cc:Work>
    </rdf:RDF>
  </metadata>
  <defs
     id="defs8" />
  <sodipodi:namedview
     pagecolor="#ffffff"
     bordercolor="#666666"
     borderopacity="1"
     objecttolerance="10"
     gridtolerance="10"
     guidetolerance="10"
     inkscape:pageopacity="0"
     inkscape:pageshadow="2"
     inkscape:window-width="1087"
     inkscape:window-height="480"
     id="namedview6"
     showgrid="false"
     inkscape:zoom="4.9166667"
     inkscape:cx="2.1355932"
     inkscape:cy="24"
     inkscape:window-x="0"
     inkscape:window-y="25"
     inkscape:window-maximized="0"
     inkscape:current-layer="svg4" />
  <path
     d="M 6.34,0.07 A 6.29,6.29 0 0 0 0.05,6.37 6.29,6.29 0 0 0 6.35,12.65 6.29,6.29 0 0 0 12.63,6.36 6.29,6.29 0 0 0 6.34,0.07 Z M 6.33,1.01 a 5.4,5.4 0 0 1 5.4,5.38 H 6.33 V 1 Z M 4.29,2.78 a 1.3,1.3 0 0 1 1.3,1.3 1.3,1.3 0 0 1 -1.3,1.3 A 1.3,1.3 0 0 1 3,4.08 1.3,1.3 0 0 1 4.3,2.78 Z m 3.9,0 V 3.64 H 7.32 V 4.51 H 8.19 V 5.38 H 9.06 V 4.5 H 9.92 V 3.63 H 9.06 V 2.77 H 8.19 Z m -7.27,3.6 h 5.42 v 5.44 a 5.4,5.4 0 0 1 -0.01,0 5.4,5.4 0 0 1 -5.41,-5.4 5.4,5.4 0 0 1 0,-0.03 z M 4.29,6.89 3.54,8.41 2.78,9.92 H 5.8 L 5.04,8.41 4.28,6.89 Z m 5.63,0 V 9.92 H 9.06 V 8.7 L 8.62,8.51 7.32,7.97 8.62,7.43 Z"
     id="path2"
     inkscape:connector-curvature="0"
     style="fill:#5beedc" />
</svg>
